docs/img/svg/s-zen.svg

<svg width="27" height="27" viewBox="0 0 27 27" fill="none" xmlns="http://www.w3.org/2000/svg">
<g clip-path="url(#clip0)">
<path fill-rule="evenodd" clip-rule="evenodd" d="M13.3511 0C7.78651 0.00052894 3.93071 0.0190419 1.95151 1.95179C0.018862 3.93055 0.000345053 7.96742 0.000345053 13.351C5.97818 13.1706 8.71182 13.0209 10.8921 10.8919C13.021 8.71166 13.1707 5.97808 13.3511 0ZM1.95116 25.0484C0.0185169 23.0696 0 19.0328 0 13.6492C5.97784 13.8296 8.71148 13.9793 10.8917 16.1083C13.0206 18.2886 13.1704 21.0221 13.3508 26.9997C7.78617 26.9997 3.93037 26.9817 1.95116 25.0484ZM13.6492 26.9997C13.8296 21.0221 13.9793 18.2886 16.1082 16.1083C18.2884 13.9793 21.0221 13.8296 26.9999 13.6492C26.9994 19.0328 26.9809 23.0696 25.0482 25.0484C23.069 26.9817 19.2138 26.9997 13.6492 26.9997ZM13.6492 0C13.8296 5.97808 13.9793 8.71166 16.1082 10.8919C18.2884 13.0209 21.0221 13.1706 26.9999 13.351C26.9994 7.96742 26.9809 3.93055 25.0482 1.95179C23.069 0.0190419 19.2138 0.00052894 13.6492 0Z" fill="#605F6C"/>
<path fill-rule="evenodd" clip-rule="evenodd" d="M26.9999 13.6498V13.5006V13.3519C21.0221 13.171 18.2884 13.0219 16.1082 10.8924C13.9793 8.7126 13.8296 5.97907 13.6492 0.000976562H13.4999H13.3508C13.1704 5.97907 13.0206 8.7126 10.8917 10.8924C8.71144 13.0219 5.9778 13.171 0 13.3519V13.5006V13.6498C5.9778 13.8306 8.71144 13.9798 10.8917 16.1088C13.0206 18.2891 13.1704 21.0226 13.3508 27.0007H13.4999H13.6492C13.8296 21.0226 13.9793 18.2891 16.1082 16.1088C18.2884 13.9798 21.0221 13.8306 26.9999 13.6498Z" fill="#3E3E3E"/>
</g>
<defs>
<clipPath id="clip0">
<rect width="27" height="27" fill="white"/>
</clipPath>
</defs>
</svg>

<svg width="27" height="27" viewBox="0 0 27 27" fill="none" xmlns="http://www.w3.org/2000/svg"><g clip-path="url(#clip0)" fill-rule="evenodd" clip-rule="evenodd"><path d="M13.351 0c-5.564 0-9.42.019-11.4 1.952C.02 3.93.002 7.967.002 13.35c5.977-.18 8.71-.33 10.891-2.46 2.129-2.18 2.279-4.913 2.46-10.891zm-11.4 25.048C.02 23.07 0 19.033 0 13.65c5.978.18 8.711.33 10.892 2.46 2.129 2.18 2.278 4.913 2.459 10.89-5.565 0-9.42-.017-11.4-1.95zM13.65 27c.18-5.978.33-8.711 2.46-10.892 2.18-2.129 4.913-2.278 10.89-2.459 0 5.384-.018 9.42-1.95 11.4-1.98 1.933-5.835 1.95-11.4 1.95zm0-27c.18 5.978.33 8.712 2.46 10.892 2.18 2.129 4.913 2.279 10.89 2.459 0-5.384-.018-9.42-1.95-11.4C23.068.02 19.213.002 13.648 0z" fill="#605F6C"/><path d="M27 13.65v-.298c-5.978-.181-8.712-.33-10.892-2.46C13.98 8.712 13.83 5.98 13.65.001h-.298c-.18 5.978-.33 8.712-2.46 10.891-2.18 2.13-4.913 2.279-10.891 2.46v.298c5.978.18 8.711.33 10.892 2.459C13.02 18.289 13.17 21.023 13.35 27h.299c.18-5.978.33-8.712 2.458-10.892 2.18-2.13 4.914-2.278 10.892-2.46z" fill="#3E3E3E"/></g><defs><clipPath id="clip0"><path fill="#fff" d="M0 0h27v27H0z"/></clipPath></defs></svg>
